X: 646
T: Hickman County
C:Paul Warren
B: jims roots
M:C|
L:1/8
Q: 1/4=100
K:D
V:1 
fg | "D"a2fga2fg | a2ea fdfg | afdf edBF | "A7"Acdf"D"e[d3f]:|
"D"J[d4f] [d2f]J[d2f]- | [df]edf ed2^e | fedf edBF | Acdf e[d3f] |
Jf2Jd2Jf2Jd2 | fedf edfg | afdf edBF | "A7"Acdf "D"e[d3f] :|
"D"[Ed]([F3d][F2d])[F2d]- | [Fd]EDF E2D2 | afdf edBF |Acdf e[d3f] |
([Ed][F2d])([Ed][F2d])([Ed][F2d])- | [Fd]EDF E2D2 | afdf edBF | "A7"Acdf "D"e[d3f] :|
% abcbook-tune_id 6298c25d45e34d35e3b5d604


% abcbook-boost 0
% abcbook-tablature 
% abcbook-transpose 
% abcbook-lastupdated 1654178398753
% abcbook-soundfonts 
% abcbook-repeats 1


